X:1
T:Title
%%score { ( 1 3 ) | ( 2 4 ) }
L:1/8
M:4/4
K:A
V:1 treble nm="Grand Piano"
V:3 treble 
V:2 bass 
V:4 bass 
V:1
 z4 z2[Q:1/4=100] [A,CE]>[A,CE] | [CEA]>[CEA] [CEA]>[CEA] [CEA]>[Ec] [EB]>[EA] | F>F F>F F2 F>F | %3
 [^DB]>[DB] [DB]>[DB] [DB]>[DA] [DG]>[DF] |[M:9/8] E>EG- G/B/ d2- dE>E | %5
[M:4/4] [Ec]>[Ec] [Ec]>[Ec] [Ec]>[Ee] [Ed]>[Ec] | [FB]>F F>F F2 F>F | E>E E>E A>A G>A | %8
[M:3/4] B>B A>G [CA]2 |[M:1/4] E>E |[M:4/4] A4 E2 z2 | [Ec]4 z4 | d2 z2 [EB]2 [FA]2 | %13
 [Ge]6[K:bass] z2[K:treble] | [CA]4 z4 | [Ec]4 z4 | [Ae]2[K:bass][K:treble] [Fd]2 c2 B2 | %17
[M:3/4] [A,EA]6 |] %18
V:2
 z4 z2 A,,>A,, | A,,>A,, C,>E, A,>[A,,A,] [B,,G,]>[C,A,] | %2
 [D,A,D]>[D,A,D] [D,A,D]>[D,A,D] [D,A,D]2 [D,A,D]>[D,A,D] | %3
 [B,,A,]>[B,,F,] [B,,F,]>[B,,F,] [B,,F,]>[B,,F,] [B,,A,]>[B,,A,] | %4
[M:9/8] [E,G,]>[E,G,][E,B,E]- [E,B,E]/[E,G,E]/ [E,G,E]2- [E,G,E][E,G,]>[E,G,] | %5
[M:4/4] [A,,A,]>[A,,A,] [A,,A,]>[A,,A,] [A,,A,]>[A,,C] [B,,B,]>[C,A,] | %6
 [D,A,]>[D,A,D] [D,A,D]>[D,A,D] [D,A,D]2 [D,A,D]>[D,A,D] | %7
 [E,A,C]>[E,A,C] [E,A,C]>[E,A,C] [E,A,C]>[E,A,C] [E,B,D]>[E,A,C] | %8
[M:3/4] [E,G,D]>[E,G,D] [E,A,C]>[E,B,] [A,,A,]2 |[M:1/4] [A,C]>[A,C] |[M:4/4] E4 z4 | %11
 [A,,A,]>A,, C,>E, [A,E]2 [A,E]>[A,E] | [B,E]>B, [A,E]>A, G,>G, F,>F, | %13
 [E,B,]>E, E,>E, E,2 [E,G,D]>[E,G,D] | [A,,A,]>A,, C,>E, A,2 A,>A, | %15
 A,>A, E,>E, [C,A,]2 [C,A,]>[C,A,] | z4 E2 D2 |[M:3/4] A,,6 |] %18
V:3
 x8 | x8 | x8 | x8 |[M:9/8] x9 |[M:4/4] x8 | x8 | x8 |[M:3/4] x6 |[M:1/4] x2 | %10
[M:4/4] z z/ C/ C>C z z/ A,/ [CE]>[CE] | z z/ A,/ A,>A, A2 c>c | z z/ E/ c2 B,>B, B,>B, | %13
 z z/[K:bass] B,/ B,>B, B,2 E>[K:treble]E | z z/ A,/ A,>A, [CE]2 [CE]>[CE] | %15
 z2 A,>A, [Ee]2 [Ee]>[Ee] | z z/[K:bass] [C,A,]/[K:treble] z z/ A,/ z z/ A,/ z z/ G,/ | %17
[M:3/4] x6 |] %18
V:4
 x8 | x8 | x8 | x8 |[M:9/8] x9 |[M:4/4] x8 | x8 | x8 |[M:3/4] x6 |[M:1/4] x2 | %10
[M:4/4] [A,C]>A, E,>E, [C,A,]>C, [A,,A,]>[A,,A,] | x8 | x8 | x8 | x8 | x8 | %16
 [C,A,]2 [D,A,]>D, [E,A,]>E, [E,G,]>E, |[M:3/4] x6 |] %18

